!!!SOCIAL_FUNCTION:	songs of the lame dance
!!!PDT:	1922
!!!OTL: Duplication of No 39
!!!REG: Southwest
!!!LANG: Non-Tone
!!!LING_GROUP: Uto-Aztecan
**kern	**kern
*staff2	*staff1
=1-	=1-
=	=
*clefF4	*clefF4
*k[b-e-a-]	*k[b-e-a-]
*M2/4	*M2/4
4GG/	4e-\
4GG/	16f\LK
.	8.e-\J
=2||	=2||
*M3/4	*M3/4
4GG/	2e-\
4GG/	.
4GG/	4e-\
=3||	=3||
*M2/4	*M2/4
4GG/	4B-\
4GG/	16c\LL
.	16B-\
.	16.c\
.	32B-\JJk
=4	=4
2r	16G\LL
.	16G\J
.	8F\J
.	16F\LK
.	8.E-\J
=5	=5
2r	2E-\
=6	=6
2r	16c\LK
.	8.B-\J
.	16c\LK
.	8.B-\J
=7	=7
2r	2B-\
=8||	=8||
*M3/4	*M3/4
2.r	16c\LK
.	8.B-\J
.	8.F\L
.	16G\Jk
.	8G\L
.	8F\J
=9||	=9||
*M2/4	*M2/4
2r	2E-\
=10	=10
2r	16G\LK
.	8.E-\J
.	16G\LK
.	8.E-\J
=11	=11
2r	2E-\
=12	=12
2r	16G\LK
.	8.E-\J
.	8.C/L
.	16E-/Jk
=13	=13
2r	16E-/LK
.	8.C/J
.	8C/L
.	8BB-/J
=14	=14
2r	8BB-/L
.	8BB-/J
.	8.BB-/L
.	16BB-/Jk
=15	=15
2r	4BB-/
.	16c\LL
.	16B-\
.	16c\
.	16B-\JJ
=16	=16
2r	16c\LK
.	8.B-\J
.	16c\LL
.	16B-\
.	16.c\
.	32B-\JJk
=17	=17
2r	16A-\LL
.	16A-\J
.	8G\J
.	16F\LK
.	8.E-\J
=18||	=18||
*M3/4	*M3/4
2.r	2.E-\
=19:|!	=19:|!
*M2/4	*M2/4
2r	8BB-/L
.	8BB-/J
.	8.BB-/L
.	16BB-/Jk
=20	=20
2r	2BB-/
=21	=21
2r	8c\L
.	8c\J
.	16c\LK
.	8B-;\
.	16c\Jk
=22	=22
2r	12c\L
.	12B-\
.	12G\J
.	8F\
.	32F\LLK
.	16.E-\JJ
=23	=23
2r	2E-\
==	==
*-	*-
